rospo-light/16x16/actions/transform-shear-down.svg

<svg height="16" viewBox="0 0 16 16" width="16" xmlns="http://www.w3.org/2000/svg"><path d="m15 1-9 2v9l9-2zm-14 4v10h9v-2.865234l-5 1.111328v-8.246094z" fill="#5c616c"/></svg>

<?xml version="1.0" encoding="UTF-8" standalone="no"?>
<svg xmlns="http://www.w3.org/2000/svg" width="22" height="22" viewBox="0 0 22 22">
 <defs>
  <style type="text/css" id="current-color-scheme">
   .ColorScheme-Text { color:#5c616c; } .ColorScheme-Highlight { color:#5294e2; }
  </style>
 </defs>
 <path style="fill:currentColor;opacity:1" class="ColorScheme-Text" transform="translate(3 3)" d="M 15 1 L 6 3 L 6 12 L 15 10 L 15 1 z M 1 5 L 1 15 L 10 15 L 10 12.134766 L 5 13.246094 L 5 5 L 1 5 z"/>
</svg>
